images/elf.svg

<svg height="250" viewBox="0 0 250 250" width="250" xmlns="http://www.w3.org/2000/svg"><g fill="#2b5eba"><path d="m249.976562 124.9375c0 29.492188-23.441406 53.398438-52.355468 53.398438-28.914063 0-52.351563-23.90625-52.351563-53.398438s23.4375-53.398438 52.351563-53.398438c28.914062 0 52.355468 23.90625 52.355468 53.398438zm0 0"/><path d="m156.710938 25.75c0 14.21875-11.304688 25.746094-25.246094 25.746094s-25.242188-11.527344-25.242188-25.746094c0-14.222656 11.300782-25.75 25.242188-25.75s25.246094 11.527344 25.246094 25.75zm0 0"/><path d="m156.710938 224.25c0 14.222656-11.304688 25.75-25.246094 25.75s-25.242188-11.527344-25.242188-25.75c0-14.21875 11.300782-25.746094 25.242188-25.746094s25.246094 11.527344 25.246094 25.746094zm0 0"/><path d="m119.902344 163.496094c1.492187.507812 3.109375.761718 4.722656.761718 8.707031 0 15.792969-7.230468 15.792969-16.109374 0-8.878907-7.085938-16.109376-15.792969-16.109376-5.59375 0-10.445312 2.917969-13.304688 7.355469v.128907c-.496093.632812-.871093 1.394531-1.117187 2.15625-17.410156 31.328124-52.355469 10.402343-52.355469 10.402343-5.71875-3.425781-12.308594-5.457031-19.523437-5.457031-21.015625 0-38.050781 17.378906-38.050781 38.8125 0 21.4375 17.035156 38.8125 38.050781 38.8125 14.675781 0 27.484375-8.496094 33.703125-20.925781v-.128907c1.117187-2.15625 1.988281-4.4375 2.734375-6.847656 18.15625-42.492187 45.140625-32.851562 45.140625-32.851562zm-8.953125-56.953125c.746093 1.398437 1.738281 2.792969 2.859375 3.933593 6.21875 6.34375 16.164062 6.34375 22.257812 0 6.21875-6.339843 6.21875-16.488281 0-22.703124-3.976562-4.058594-9.449218-5.453126-14.425781-4.3125h-.121094c-.746093.125-1.617187.378906-2.363281.761718-34.074219 9.636719-44.269531-30.441406-44.269531-30.441406-1.617188-6.597656-4.976563-12.8125-9.949219-17.886719-14.921875-15.21875-38.921875-15.21875-53.71875-.125-14.800781 15.09375-14.925781 39.699219 0 54.792969 10.445312 10.65625 25.242188 13.824219 38.421875 9.511719h.125c2.238281-.757813 4.476563-1.773438 6.714844-2.914063 42.15625-16.996094 54.46875 9.382813 54.46875 9.382813zm0 0"/></g></svg>

<svg xmlns="http://www.w3.org/2000/svg" xmlns:xlink="http://www.w3.org/1999/xlink" width="250px" height="250px" viewBox="0 0 250 250" version="1.1">
<g id="surface1">
<path style=" stroke:none;fill-rule:nonzero;fill:rgb(16.862746%,36.862746%,72.941178%);fill-opacity:1;" d="M 249.976562 124.9375 C 249.976562 154.429688 226.535156 178.335938 197.621094 178.335938 C 168.707031 178.335938 145.269531 154.429688 145.269531 124.9375 C 145.269531 95.445312 168.707031 71.539062 197.621094 71.539062 C 226.535156 71.539062 249.976562 95.445312 249.976562 124.9375 Z M 249.976562 124.9375 "/>
<path style=" stroke:none;fill-rule:nonzero;fill:rgb(16.862746%,36.862746%,72.941178%);fill-opacity:1;" d="M 156.710938 25.75 C 156.710938 39.96875 145.40625 51.496094 131.464844 51.496094 C 117.523438 51.496094 106.222656 39.96875 106.222656 25.75 C 106.222656 11.527344 117.523438 0 131.464844 0 C 145.40625 0 156.710938 11.527344 156.710938 25.75 Z M 156.710938 25.75 "/>
<path style=" stroke:none;fill-rule:nonzero;fill:rgb(16.862746%,36.862746%,72.941178%);fill-opacity:1;" d="M 156.710938 224.25 C 156.710938 238.472656 145.40625 250 131.464844 250 C 117.523438 250 106.222656 238.472656 106.222656 224.25 C 106.222656 210.03125 117.523438 198.503906 131.464844 198.503906 C 145.40625 198.503906 156.710938 210.03125 156.710938 224.25 Z M 156.710938 224.25 "/>
<path style=" stroke:none;fill-rule:nonzero;fill:rgb(16.862746%,36.862746%,72.941178%);fill-opacity:1;" d="M 119.902344 163.496094 C 121.394531 164.003906 123.011719 164.257812 124.625 164.257812 C 133.332031 164.257812 140.417969 157.027344 140.417969 148.148438 C 140.417969 139.269531 133.332031 132.039062 124.625 132.039062 C 119.03125 132.039062 114.179688 134.957031 111.320312 139.394531 L 111.320312 139.523438 C 110.824219 140.15625 110.449219 140.917969 110.203125 141.679688 C 92.792969 173.007812 57.847656 152.082031 57.847656 152.082031 C 52.128906 148.65625 45.539062 146.625 38.324219 146.625 C 17.308594 146.625 0.273438 164.003906 0.273438 185.4375 C 0.273438 206.875 17.308594 224.25 38.324219 224.25 C 53 224.25 65.808594 215.753906 72.027344 203.324219 L 72.027344 203.195312 C 73.144531 201.039062 74.015625 198.757812 74.761719 196.347656 C 92.917969 153.855469 119.902344 163.496094 119.902344 163.496094 Z M 110.949219 106.542969 C 111.695312 107.941406 112.6875 109.335938 113.808594 110.476562 C 120.027344 116.820312 129.972656 116.820312 136.066406 110.476562 C 142.285156 104.136719 142.285156 93.988281 136.066406 87.773438 C 132.089844 83.714844 126.617188 82.320312 121.640625 83.460938 L 121.519531 83.460938 C 120.773438 83.585938 119.902344 83.839844 119.15625 84.222656 C 85.082031 93.859375 74.886719 53.78125 74.886719 53.78125 C 73.269531 47.183594 69.910156 40.96875 64.9375 35.894531 C 50.015625 20.675781 26.015625 20.675781 11.21875 35.769531 C -3.582031 50.863281 -3.707031 75.46875 11.21875 90.5625 C 21.664062 101.21875 36.460938 104.386719 49.640625 100.074219 L 49.765625 100.074219 C 52.003906 99.316406 54.242188 98.300781 56.480469 97.160156 C 98.636719 80.164062 110.949219 106.542969 110.949219 106.542969 Z M 110.949219 106.542969 "/>
</g>
</svg>
